assets/Panda/Flat/panda_flat.svg

<svg width="32" height="32" viewBox="0 0 32 32" fill="none" xmlns="http://www.w3.org/2000/svg">
<path d="M3.46298 12.795C2.58005 11.9734 2.02777 10.8012 2.02777 9.5C2.02777 7.01472 4.04249 5 6.52777 5C7.98562 5 9.28155 5.69325 10.1039 6.76806C11.9125 5.95326 13.9175 5.5 16.0278 5.5C18.1384 5.5 20.1437 5.95271 21.9525 6.76692C22.7749 5.69276 24.0704 5 25.5278 5C28.0131 5 30.0278 7.01472 30.0278 9.5C30.0278 10.8004 29.4762 11.9719 28.5942 12.7935C29.8241 14.9341 30.5278 17.419 30.5278 20.0704C30.5278 24.1186 28.8779 26.7703 26.1827 28.3779C23.5318 29.9591 19.9216 30.5 16.0278 30.5C12.134 30.5 8.52375 29.9591 5.87289 28.3779C3.17762 26.7703 1.52777 24.1186 1.52777 20.0704C1.52777 17.4212 2.2321 14.9363 3.46298 12.795Z" fill="#433B6B"/>
<path d="M2.52777 20.0704C2.52777 12.5753 8.57627 6.5 16.0278 6.5C23.4795 6.5 29.5278 12.5655 29.5278 20.0704C29.5278 23.791 28.0426 26.1041 25.6704 27.5191C23.2537 28.9605 19.864 29.5 16.0278 29.5C12.1916 29.5 8.8018 28.9605 6.38515 27.5191C4.01292 26.1041 2.52777 23.791 2.52777 20.0704Z" fill="#F4F4F4"/>
<path d="M7.82463 18.9368C9.24222 20.3544 11.547 20.3544 12.9646 18.9368C14.3822 17.5192 14.3822 15.2144 12.9646 13.7969C11.547 12.3793 9.87868 13.0157 8.4611 14.4333C7.04351 15.8509 6.40705 17.5192 7.82463 18.9368Z" fill="#635994"/>
<path d="M24.2309 18.9368C25.6485 17.5192 25.012 15.8509 23.5944 14.4333C22.1769 13.0157 20.5085 12.3793 19.091 13.7969C17.6734 15.2144 17.6734 17.5192 19.091 18.9368C20.5085 20.3544 22.8133 20.3544 24.2309 18.9368Z" fill="#635994"/>
<path d="M11.0278 16C11.0278 15.4477 11.4755 15 12.0278 15C12.5801 15 13.0278 15.4477 13.0278 16V17C13.0278 17.5523 12.5801 18 12.0278 18C11.4755 18 11.0278 17.5523 11.0278 17V16Z" fill="#1C1C1C"/>
<path d="M19.0278 16C19.0278 15.4477 19.4755 15 20.0278 15C20.5801 15 21.0278 15.4477 21.0278 16V17C21.0278 17.5523 20.5801 18 20.0278 18C19.4755 18 19.0278 17.5523 19.0278 17V16Z" fill="#1C1C1C"/>
<path d="M15.5534 20.8194L14.5396 19.9857C14.3752 19.85 14.2796 19.6482 14.2796 19.435C14.2796 19.0413 14.599 18.7219 14.9927 18.7219H17.0665C17.4602 18.7219 17.7796 19.0413 17.7796 19.435C17.7796 19.6482 17.684 19.85 17.5196 19.9857L16.5065 20.8194C16.2296 21.0469 15.8296 21.0469 15.5534 20.8194Z" fill="#1C1C1C"/>
<path d="M16.0278 22C16.0886 22 16.1479 22.0111 16.2033 22.0319C16.2718 22.0575 16.332 22.0971 16.3814 22.1465C16.431 22.196 16.4707 22.2565 16.4963 22.3253C16.504 22.346 16.5104 22.3672 16.5153 22.3888C16.5997 22.7257 16.7114 23.1343 16.9423 23.4621C17.1548 23.7636 17.4687 24.0001 18.0278 24.0001C18.6821 24.0001 19.0278 23.4657 19.0278 23.0001C19.0278 22.724 19.2516 22.5001 19.5278 22.5001C19.8039 22.5001 20.0278 22.724 20.0278 23.0001C20.0278 23.8678 19.3734 25.0001 18.0278 25.0001C17.1025 25.0001 16.4997 24.57 16.1249 24.0381C16.0906 23.9895 16.0583 23.94 16.0278 23.8901C15.9973 23.94 15.9649 23.9895 15.9306 24.0381C15.5558 24.57 14.9531 25.0001 14.0278 25.0001C12.6821 25.0001 12.0278 23.8678 12.0278 23.0001C12.0278 22.724 12.2516 22.5001 12.5278 22.5001C12.8039 22.5001 13.0278 22.724 13.0278 23.0001C13.0278 23.4657 13.3734 24.0001 14.0278 24.0001C14.5868 24.0001 14.9008 23.7636 15.1132 23.4621C15.3442 23.1343 15.4558 22.7257 15.5402 22.3888C15.5452 22.3669 15.5517 22.3455 15.5595 22.3246C15.5851 22.2561 15.6247 22.1959 15.6742 22.1465C15.7235 22.0971 15.7837 22.0575 15.8523 22.0319C15.9076 22.0111 15.9669 22 16.0278 22Z" fill="#1C1C1C"/>
</svg>

<svg xmlns="http://www.w3.org/2000/svg" width="32" height="32" fill="none"><path fill="#433B6B" d="M3.463 12.795a4.5 4.5 0 1 1 6.64-6.027A14.385 14.385 0 0 1 16.029 5.5c2.11 0 4.116.453 5.925 1.267a4.5 4.5 0 1 1 6.642 6.027 14.561 14.561 0 0 1 1.933 7.276c0 4.049-1.65 6.7-4.345 8.308-2.651 1.581-6.261 2.122-10.155 2.122-3.894 0-7.504-.54-10.155-2.122-2.695-1.608-4.345-4.26-4.345-8.308 0-2.649.704-5.134 1.935-7.275Z"/><path fill="#F4F4F4" d="M2.528 20.07c0-7.495 6.048-13.57 13.5-13.57s13.5 6.066 13.5 13.57c0 3.721-1.485 6.034-3.858 7.45-2.416 1.44-5.806 1.98-9.642 1.98-3.836 0-7.226-.54-9.643-1.98-2.372-1.416-3.857-3.729-3.857-7.45Z"/><path fill="#635994" d="M7.825 18.937a3.638 3.638 0 0 0 5.14 0 3.638 3.638 0 0 0 0-5.14c-1.418-1.418-3.086-.781-4.504.636-1.417 1.418-2.054 3.086-.636 4.504ZM24.23 18.937c1.418-1.418.782-3.086-.636-4.504-1.417-1.417-3.085-2.054-4.503-.636a3.638 3.638 0 0 0 0 5.14 3.638 3.638 0 0 0 5.14 0Z"/><path fill="#1C1C1C" d="M11.028 16a1 1 0 1 1 2 0v1a1 1 0 1 1-2 0v-1ZM19.028 16a1 1 0 1 1 2 0v1a1 1 0 1 1-2 0v-1ZM15.553 20.82l-1.013-.834a.714.714 0 0 1 .453-1.264h2.074a.713.713 0 0 1 .453 1.264l-1.014.833a.75.75 0 0 1-.953 0ZM16.028 22a.499.499 0 0 1 .487.389c.085.337.196.745.427 1.073.213.302.527.538 1.086.538.654 0 1-.534 1-1a.5.5 0 1 1 1 0c0 .868-.655 2-2 2-.925 0-1.528-.43-1.903-.962a2.685 2.685 0 0 1-.097-.148c-.03.05-.063.1-.097.148-.375.532-.978.962-1.903.962-1.346 0-2-1.132-2-2a.5.5 0 1 1 1 0c0 .466.345 1 1 1 .559 0 .873-.236 1.085-.538.231-.328.343-.736.427-1.073a.505.505 0 0 1 .312-.357.498.498 0 0 1 .176-.032Z"/></svg>
